svgs/solid/chart-bullet.svg

<svg xmlns="http://www.w3.org/2000/svg" viewBox="0 0 512 512"><!--! Font Awesome Pro 6.6.0 by @fontawesome - https://fontawesome.com License - https://fontawesome.com/license (Commercial License) Copyright 2024 Fonticons, Inc. --><path d="M264 32c13.3 0 24 10.7 24 24l0 8 176 0c26.5 0 48 21.5 48 48l0 64c0 26.5-21.5 48-48 48l-176 0 0 8c0 13.3-10.7 24-24 24s-24-10.7-24-24l0-8L48 224c-26.5 0-48-21.5-48-48l0-64C0 85.5 21.5 64 48 64l192 0 0-8c0-13.3 10.7-24 24-24zM160 128l0 32 80 0 0-32-80 0zm128 0l0 32 160 0 0-32-160 0zm48 256l0-32-80 0 0 32 80 0zm0 64L48 448c-26.5 0-48-21.5-48-48l0-64c0-26.5 21.5-48 48-48l288 0 0-8c0-13.3 10.7-24 24-24s24 10.7 24 24l0 8 80 0c26.5 0 48 21.5 48 48l0 64c0 26.5-21.5 48-48 48l-80 0 0 8c0 13.3-10.7 24-24 24s-24-10.7-24-24l0-8zm48-96l0 32 64 0 0-32-64 0z"/></svg>

<svg xmlns="http://www.w3.org/2000/svg" viewBox="0 0 512 512"><!--! Font Awesome Pro 6.4.2 by @fontawesome - https://fontawesome.com License - https://fontawesome.com/license (Commercial License) Copyright 2023 Fonticons, Inc. --><path d="M264 32c13.3 0 24 10.7 24 24v8H464c26.5 0 48 21.5 48 48v64c0 26.5-21.5 48-48 48H288v8c0 13.3-10.7 24-24 24s-24-10.7-24-24v-8H48c-26.5 0-48-21.5-48-48V112C0 85.5 21.5 64 48 64H240V56c0-13.3 10.7-24 24-24zM160 128v32h80V128H160zm128 0v32H448V128H288zm48 256V352H256v32h80zm0 64H48c-26.5 0-48-21.5-48-48V336c0-26.5 21.5-48 48-48H336v-8c0-13.3 10.7-24 24-24s24 10.7 24 24v8h80c26.5 0 48 21.5 48 48v64c0 26.5-21.5 48-48 48H384v8c0 13.3-10.7 24-24 24s-24-10.7-24-24v-8zm48-96v32h64V352H384z"/></svg>
